X:110
T:Miss Admiral Gordon's Strathspey
S:Hamilton Complete Repository
M:4/4
L:1/8
Q:1/4=120
K:D
A|d/d/d d>d d>Ad>b|a<fe>f                 {c}B2 B>e|d/d/d d>d d>Ad>b|ab/c'/ d'f {f}a2ab|
  aad'f     afe>d |(e/g/)(f/a/) (g/f/)(e/d/) a2 be |d/d/d d>d d>Ad>b|afe>f         d3 ||
A|F>Ad>A    B>AdA | f>g         (g/f/)(e/d/) {c}B2  B>{c}d |\
  F>Ad>A    B>AdA | f>g (a/b/)(c'/d'/)       {b}a2 (ab/c'/)|
  d'>c'ba   b>agf |(e/g/)(f/a/) (g/f/)(e/d/) {c}B2 TBe     |\
  d/d/d d>d d>Ad>b| afe>f                       d3        |]

